X: 40984
T: Trip To Dublin, The
R: reel
M: 4/4
K: Adorian
ABcd e2 fe|dABG E2 Gc|A2 B/c/d efed|cAAG A2 cB|
AEcE effe|dABG E3 G|ecdB cABG|c/B/A BG A2:|
ecAc GcEc|dBAB GBdB|cAAG A2 c/B/c|ecED E2 cd|
ec c/c/c Gc c/c/c|dB B/B/B G2 B/B/d|1 A2 B/c/d efed|c/B/A BG A2:|

